!!!OTL: 178. Abschied vom Walde.
!!!COM: Mendelssohn
!!!ARE: Europa, Mitteleuropa, Deutschland
!!!SCT: B0178
!!!TXL: @@DE
!!!YEM: Copyright 1995, estate of Helmut Schaffrath.
**kern	**text
*ICvox	*
*Ivox	*
*M4/4	*
*met(c)	*
*clefG2	*
*k[b-e-a-]	*
*E-:	*
!LO:TX:a:t=Ausdrucksvoll.	!
{4b-	O
=1	=1
4g	Thä-
4e-	-ler
4.d	weit,
8e-	o
=2	=2
2g	Hö-
4f}	-hen,
{4e-	o
=3	=3
4a-	ſchö-
4g	-ner
4.cc	grü-
8cc	-ner
=4	=4
2b-	Wald,
4r}	.
{4b-	du
=5	=5
4ee-	mei-
4b-/	-ner
4.a-	Luſt
8g	und
=6	=6
2g	We-
4f}	-hen
{4cc	an-
=7	=7
4cc	-dächt'-
4f	-ger
4.a-	Auf-
8d	-ent-
=8	=8
2e-	-halt!
4r}	.
{4g	Da
=9	=9
4.g	drau-
8f	-ßen,
4f	ſtets
4f	be-
=10	=10
2a-	-tro-
2g}	-gen,
=11	=11
{4b-	ſauſt
8.b-	die
16b-	ge-
4b-	-ſchäft'-
4b-	-ge
=12	=12
2.an}	Welt:
{4dd	ſchlag
=13	=13
4ee-	noch
4b-	ein-
4a-X	-mal
4g	die
=14	=14
2g	Bo-
4f}	-gen
{4cc	um
=15	=15
4.cc	mich,
8f	du
4g	grü-
4a-	-nes
=16	=16
2g	Ʒelt;
4r}	.
{4b-	ſchlag
=17	=17
4b-	noch
4ee-	ein-
4.gg	-mal
8ff	die
=18	=18
(4ee-	Bo-
4dd)	.
4cc	-gen
4bn	um
=19	=19
4cc	mich,
4r}	.
{4f	du
4r	.
=20	=20
2.a-	grü-
4d	-nes
=21	=21
2e-	Ʒelt!
4r}	.
==	==
!!!AGN: Natur - Lied, Wald
!!!GTL: Naturfreude, Waldlust, Landleben, Berg- und Wasserfahrt
!!!ONB: ESAC (Essen Associative Code) Database: BOEHME
!!!AMT: simple quadruple
!!!AIN: vox
!!!EED: Helmut Schaffrath
!!!EEV: 1.0
!!Mendelssohn, Sechs Volkslieder f. gem. Chor. op. 59. Nr. 3.
!!@@COMMENT:"Gedicht von Jos. Freiherrn von Eichendorff. 1810.[...]
!!Das erhebende Lied, darin Mendelssohn und Eichendorff sich umarmen, singt von dem fֳ¼gen,
!!herrlichen Waldfrieden und dem Frieden im Herzeu.[...]"
!!@@END:
!!!Text: Jos. Freiherrn von Eichendorff
!!!URL-scan: https://archive.org/details/BoehmeVtLieder1895/page/n175/mode/2up
!!!ENC: Anna Maria Matuszewska
!!!EEV: 2024/21/06
*-	*-
